X:1
T:der kleine Mann im Gewuehle
C:traditionell
A:Deutschland
%%textfont Helvetica-Narrow 10pt
%%begintext align
B:Pijpersboek, Mart Heijmans, Muziekuitgeverij van Teeseling, Nijmegen, 1980
N:im buch nr 57
N:im buch ganz in C  1. ton c''
%%endtext
F:http://simonwascher.info/
Z:abc transcription Simon Wascher
M:3/4
L:1/8
K:C
cf |:\
g2 gf ed | c2 ce dc | d2 df ed | e2 c2 ce |\
g2 gf ed | c2 ce dc | d2 df ed |1 c4 cf :|\
                               [2 c4 de ||
|:\
f2 d2 f2 | e2 c2 e2 | d2 dd cB | cd e2 de |\
f2 d2 f2 | e2 c2 e2 | d2 dd cB |1 c4 de :|\
                               [2 c4 ||
%%wordsfont Times-Italic 11pt
W:aus Simon Waschers TradArchiv
